storage/app/icons/phosphoricons/fill/shrimp-fill.svg

<svg xmlns="http://www.w3.org/2000/svg" fill="currentColor" viewBox="0 0 256 256"><path d="M136 116a12 12 0 1 1 12 12 12 12 0 0 1-12-12m104-56a28 28 0 0 1-16.2 25.38A80.09 80.09 0 0 1 144 160h-32a12 12 0 0 0 0 24h56a8 8 0 0 1 0 16h-48v16h32a8 8 0 0 1 0 16H96a80 80 0 0 1 0-160h116a12 12 0 0 0 0-24h-84a24 24 0 0 1-24-24 8 8 0 0 1 16 0 8 8 0 0 0 8 8h84a28 28 0 0 1 28 28M85.72 182.2a8 8 0 0 0-11.16-1.86l-15.36 11a8 8 0 0 0 9.3 13l15.36-11a8 8 0 0 0 1.86-11.14m-1.5-35.62L45.55 129a8 8 0 1 0-6.62 14.56l38.67 17.59a8 8 0 0 0 10.59-4 8 8 0 0 0-3.97-10.57M207.5 88H120v56h24a64.09 64.09 0 0 0 63.5-56"/></svg>

<svg xmlns="http://www.w3.org/2000/svg" viewBox="0 0 256 256" fill="currentColor"><path d="M136,116a12,12,0,1,1,12,12A12,12,0,0,1,136,116ZM240,60a28,28,0,0,1-16.2,25.38A80.09,80.09,0,0,1,144,160H112a12,12,0,0,0,0,24h56a8,8,0,0,1,0,16H120v16h32a8,8,0,0,1,0,16H96A80,80,0,0,1,96,72H212a12,12,0,0,0,0-24H128a24,24,0,0,1-24-24,8,8,0,0,1,16,0,8,8,0,0,0,8,8h84A28,28,0,0,1,240,60ZM85.72,182.2a8,8,0,0,0-11.16-1.86l-15.36,11a8,8,0,0,0,9.3,13l15.36-11A8,8,0,0,0,85.72,182.2Zm-1.5-35.62L45.55,129a8,8,0,1,0-6.62,14.56L77.6,161.15a8,8,0,0,0,10.59-4A8,8,0,0,0,84.22,146.58ZM207.5,88H120v56h24A64.09,64.09,0,0,0,207.5,88Z"/></svg>
